X:53
T:Sonata K.208 in A Major (Adagio e cantabile)
C:Scarlatti, D.
M:3/4
L:1/8
Q:1/4=54
K:A
|:E2|A4 Bc|d4 cB|A4 GF|E4 E2|
A4 Bc|d4 ef|e4 dc|B4 B2|
e4 ef|g4 fe|e4 dc|B4 B2|
A4 Bc|d4 ef|e4 dc|A4:|

